img/7zip.svg

<?xml version="1.0" encoding="UTF-8"?>
<svg xmlns="http://www.w3.org/2000/svg" height="34" width="44">
	<rect width="42" height="32" fill="#fff"/>
	<path d="m28 13v3h5.3l-5.3 7.7v3.3h9v-3h-5.3l5.3-7.7v-3.3zm-17-3v3h7.5l-4.5 4.5v6.5h4v-6.5l4-4v-3.5m-15-3h18v20h-18zm-7-7v34h44v-34zm3 3h38v28h-38"/>
</svg>

<svg xmlns="http://www.w3.org/2000/svg" width="44" height="34"><path fill="#fff" d="M0 0h42v32H0z"/><path d="M28 13v3h5.3L28 23.7V27h9v-3h-5.3l5.3-7.7V13zm-17-3v3h7.5L14 17.5V24h4v-6.5l4-4V10M7 7h18v20H7zM0 0v34h44V0zm3 3h38v28H3"/></svg>
